icons/svg/vector-polyline.svg

﻿<?xml version="1.0" encoding="utf-8"?>
<!DOCTYPE svg PUBLIC "-//W3C//DTD SVG 1.1//EN" "http://www.w3.org/Graphics/SVG/1.1/DTD/svg11.dtd">
<svg xmlns="http://www.w3.org/2000/svg" xmlns:xlink="http://www.w3.org/1999/xlink" version="1.1" baseProfile="full" width="24" height="24" viewBox="0 0 24.00 24.00" enable-background="new 0 0 24.00 24.00" xml:space="preserve">
	<path fill="#000000" fill-opacity="1" fill-rule="evenodd" stroke-width="0.2" stroke-linejoin="round" d="M 16.0012,2.0025L 16.0012,7.9975L 17.075,7.9975L 14.9463,12.9975L 14.2625,12.9975L 12.0025,9.97125L 12.0025,5L 6.00125,5L 6.00125,11.0012L 6.91375,11.0012L 4.8775,16.0012L 2.0025,16.0012L 2.0025,22.0025L 7.9975,22.0025L 7.9975,16.0012L 7.03625,16.0012L 9.0725,11.0012L 10.2738,11.0012L 12.0025,13.315L 12.0025,18.9988L 17.9975,18.9988L 17.9975,12.9975L 17.1187,12.9975L 19.2475,7.9975L 22.0025,7.9975L 22.0025,2.0025M 17.9975,3.99875L 20,3.99875L 20,6.00125L 17.9975,6.00125M 7.9975,7.0025L 10,7.0025L 10,8.99875L 7.9975,8.99875M 13.9987,15L 16.0012,15L 16.0012,17.0025L 13.9987,17.0025M 3.99875,17.9975L 6.00125,17.9975L 6.00125,20L 3.99875,20"/>
</svg>

<svg xmlns="http://www.w3.org/2000/svg" version="1.1" baseProfile="full" width="24" height="24" viewBox="0 0 24.00 24.00" xml:space="preserve"><path fill="#000" fill-opacity="1" fill-rule="evenodd" stroke-width=".2" stroke-linejoin="round" d="M16 2.002v5.995h1.075l-2.13 5h-.683l-2.26-3.026V5h-6v6h.912l-2.036 5H2.002v6.003h5.995V16h-.96l2.035-5h1.202l1.73 2.315L12 19h5.995v-6.002h-.878l2.127-5h2.756V2.002M17.997 4H20v2h-2.003m-10 1.003H10v1.996H7.997M14 15h2v2.003h-2m-10 .994h2V20H4"/></svg>
